; <IceSL Jan 24 2018 16:30:25>
;FLAVOR:UltiGCode
;TIME:3150
;MATERIAL:9284.1683233111
;MATERIAL2:0
M107
; printer_name           : 	 ultimaker2
; nozzle_diameter_mm     : 	 0.4
; bed_size_x_mm          : 	 235
; bed_size_y_mm          : 	 225
; xy_mm_per_pixels       : 	 0.05
; z_layer_height_mm      : 	 0.3
; print_speed_mm_per_sec : 	 30
; first_layer_print_speed_mm_per_sec  : 	 10
; travel_speed_mm_per_sec: 	 80
; perimeter_print_speed_mm_per_sec   : 	 20
; brush0:print_perimeter       : 	 1
; brush0:extruder              : 	 0
; brush0:infill_percentage     : 	 20
; brush0:num_shells            : 	 1
; brush0:cover_thickness_mm    : 	 1.2
; brush0:flow_muitplier        : 	 1
; brush0:speed_muitplier       : 	 1
; brush1:print_perimeter       : 	 1
; brush1:extruder              : 	 0
; brush1:infill_percentage     : 	 20
; brush1:num_shells            : 	 1
; brush1:cover_thickness_mm    : 	 1.2
; brush1:flow_muitplier        : 	 1
; brush1:speed_muitplier       : 	 1
; brush2:print_perimeter       : 	 1
; brush2:extruder              : 	 0
; brush2:infill_percentage     : 	 20
; brush2:num_shells            : 	 1
; brush2:cover_thickness_mm    : 	 1.2
; brush2:flow_muitplier        : 	 1
; brush2:speed_muitplier       : 	 1
; brush3:print_perimeter       : 	 1
; brush3:extruder              : 	 0
; brush3:infill_percentage     : 	 20
; brush3:num_shells            : 	 1
; brush3:cover_thickness_mm    : 	 1.2
; brush3:flow_muitplier        : 	 1
; brush3:speed_muitplier       : 	 1
; bed_temp_degree_c     : 	 50
; filament_diameter_mm[0]: 	 2.85
; filament_priming_mm[0]: 	 3
; extruder_temp_degree_c[0]  : 	 210
; filament_diameter_mm[1]: 	 2.85
; filament_priming_mm[1]: 	 6.5
; extruder_temp_degree_c[1]  : 	 210
; process_thin_features : 	 off
; enable_fit_single_path : 	 on
;(<layer>)
G0 F600 Z0.300000
G10
G0 F4800.000 X121.850 Y105.250
G11
G1 F600.000 X120.950 Y103.650 E0.220290
G1 F600.000 X119.450 Y102.300 E0.462455
G1 F600.000 X117.050 Y101.350 E0.772197
G1 F600.000 X115.000 Y101.700 E1.021756
G1 F600.000 X112.400 Y103.300 E1.388100
G1 F600.000 X111.600 Y104.050 E1.519691
G1 F600.000 X109.250 Y104.350 E1.803979
G1 F600.000 X107.000 Y105.550 E2.109979
G1 F600.000 X105.850 Y107.000 E2.332060
G1 F600.000 X105.100 Y108.900 E2.577180
G1 F600.000 X104.700 Y111.600 E2.904716
G1 F600.000 X104.350 Y112.350 E3.004033
G1 F600.000 X103.350 Y115.350 E3.383506
G1 F600.000 X103.150 Y118.200 E3.726347
G1 F600.000 X103.350 Y120.650 E4.021325
G1 F600.000 X103.800 Y122.200 E4.215005
G1 F600.000 X104.800 Y123.950 E4.456872
G1 F600.000 X105.800 Y125.050 E4.635266
G1 F600.000 X107.200 Y126.100 E4.845265
G1 F600.000 X109.350 Y127.000 E5.124958
G1 F600.000 X111.050 Y127.300 E5.332110
G1 F600.000 X113.450 Y126.900 E5.624082
G1 F600.000 X114.550 Y126.350 E5.771662
G1 F600.000 X116.400 Y126.600 E5.995680
G1 F600.000 X117.900 Y126.500 E6.176080
G1 F600.000 X119.800 Y125.700 E6.423466
G1 F600.000 X121.750 Y124.050 E6.729994
G1 F600.000 X122.700 Y123.000 E6.899911
G1 F600.000 X123.450 Y121.850 E7.064666
G1 F600.000 X124.650 Y121.650 E7.210653
G1 F600.000 X126.900 Y120.650 E7.506119
G1 F600.000 X128.200 Y119.150 E7.744311
G1 F600.000 X128.850 Y117.050 E8.008106
G1 F600.000 X128.600 Y114.300 E8.339467
G1 F600.000 X128.000 Y113.100 E8.500464
G1 F600.000 X126.850 Y111.850 E8.704288
G1 F600.000 X124.500 Y110.000 E9.063186
G1 F600.000 X123.800 Y109.300 E9.181979
G1 F600.000 X123.050 Y108.100 E9.351791
G1 F600.000 X121.887 Y105.339 E9.711273
G0 F4800.000 X121.500 Y105.450
G1 F600.000 X120.600 Y103.850 E9.931564
G1 F600.000 X119.200 Y102.600 E10.156784
G1 F600.000 X116.900 Y101.750 E10.451028
G1 F600.000 X115.050 Y102.100 E10.676966
G1 F600.000 X112.600 Y103.650 E11.024863
G1 F600.000 X111.750 Y104.450 E11.164934
G1 F600.000 X109.300 Y104.750 E11.461129
G1 F600.000 X107.200 Y105.900 E11.748441
G1 F600.000 X106.150 Y107.250 E11.953671
G1 F600.000 X105.450 Y109.050 E12.185431
G1 F600.000 X105.100 Y111.750 E12.512140
G1 F600.000 X104.750 Y112.500 E12.611458
G1 F600.000 X103.750 Y115.500 E12.990931
G1 F600.000 X103.550 Y118.250 E13.321802
G1 F600.000 X103.750 Y120.600 E13.604821
G1 F600.000 X104.200 Y122.100 E13.792747
G1 F600.000 X105.150 Y123.750 E14.021221
G1 F600.000 X106.100 Y124.800 E14.191138
G1 F600.000 X107.450 Y125.800 E14.392742
G1 F600.000 X109.500 Y126.650 E14.659051
G1 F600.000 X111.100 Y126.900 E14.853380
G1 F600.000 X113.400 Y126.500 E15.133524
G1 F600.000 X114.550 Y125.950 E15.286495
G1 F600.000 X116.450 Y126.200 E15.516459
G1 F600.000 X117.850 Y126.100 E15.684888
G1 F600.000 X119.650 Y125.350 E15.918888
G1 F600.000 X121.450 Y123.800 E16.203936
G1 F600.000 X122.400 Y122.750 E16.373854
G1 F600.000 X123.200 Y121.500 E16.551943
G1 F600.000 X124.600 Y121.250 E16.722599
G1 F600.000 X126.750 Y120.300 E17.004663
G1 F600.000 X127.900 Y118.900 E17.222075
G1 F600.000 X128.450 Y116.950 E17.465204
G1 F600.000 X128.350 Y115.150 E17.681538
G1 F600.000 X128.200 Y114.400 E17.773321
G1 F600.000 X127.650 Y113.300 E17.920900
G1 F600.000 X126.550 Y112.100 E18.116247
G1 F600.000 X124.200 Y110.300 E18.471464
G1 F600.000 X123.500 Y109.600 E18.590258
G1 F600.000 X122.700 Y108.300 E18.773430
G1 F600.000 X121.537 Y105.539 E19.132914
G0 F4800.000 X121.150 Y105.600
G1 F600.000 X120.250 Y104.050 E19.347994
G1 F600.000 X118.950 Y102.900 E19.556274
G1 F600.000 X116.950 Y102.150 E19.812593
G1 F600.000 X115.100 Y102.500 E20.038530
G1 F600.000 X112.800 Y104.000 E20.368038
G1 F600.000 X111.950 Y104.850 E20.512289
G1 F600.000 X109.350 Y105.150 E20.826359
G1 F600.000 X107.400 Y106.250 E21.095022
G1 F600.000 X106.450 Y107.500 E21.283426
G1 F600.000 X105.850 Y109.200 E21.499758
G1 F600.000 X105.500 Y111.800 E21.814571
G1 F600.000 X105.100 Y112.650 E21.927301
G1 F600.000 X104.150 Y115.600 E22.299204
G1 F600.000 X103.950 Y118.300 E22.624090
G1 F600.000 X104.150 Y120.550 E22.895155
G1 F600.000 X104.600 Y122.000 E23.077341
G1 F600.000 X105.500 Y123.550 E23.292423
G1 F600.000 X106.400 Y124.550 E23.453865
G1 F600.000 X107.700 Y125.500 E23.647079
G1 F600.000 X109.650 Y126.300 E23.900007
G1 F600.000 X111.150 Y126.500 E24.081600
G1 F600.000 X113.350 Y126.100 E24.349928
G1 F600.000 X114.550 Y125.550 E24.508333
G1 F600.000 X116.500 Y125.800 E24.744247
G1 F600.000 X117.800 Y125.700 E24.900709
G1 F600.000 X119.500 Y125.000 E25.121326
G1 F600.000 X121.150 Y123.550 E25.384916
G1 F600.000 X122.100 Y122.500 E25.554832
G1 F600.000 X122.950 Y121.150 E25.746267
G1 F600.000 X124.100 Y120.850 E25.888885
G1 F600.000 X124.600 Y120.850 E25.948885
G1 F600.000 X126.600 Y119.950 E26.212067
G1 F600.000 X127.600 Y118.650 E26.408878
G1 F600.000 X128.050 Y116.850 E26.631527
G1 F600.000 X127.950 Y115.150 E26.835878
G1 F600.000 X127.800 Y114.500 E26.915930
G1 F600.000 X127.300 Y113.500 E27.050095
G1 F600.000 X126.250 Y112.350 E27.236963
G1 F600.000 X123.900 Y110.600 E27.588564
G1 F600.000 X123.200 Y109.900 E27.707357
G1 F600.000 X122.350 Y108.500 E27.903896
G1 F600.000 X121.188 Y105.691 E28.268744
G0 F4800.000 X120.800 Y105.750
G1 F600.000 X119.900 Y104.250 E28.478657
G1 F600.000 X118.700 Y103.200 E28.670000
G1 F600.000 X117.000 Y102.550 E28.888403
G1 F600.000 X115.150 Y102.900 E29.114338
G1 F600.000 X113.050 Y104.350 E29.420572
G1 F600.000 X112.150 Y105.250 E29.573309
G1 F600.000 X109.400 Y105.550 E29.905266
G1 F600.000 X107.600 Y106.600 E30.155331
G1 F600.000 X106.800 Y107.750 E30.323437
G1 F600.000 X106.250 Y109.350 E30.526464
G1 F600.000 X105.900 Y111.850 E30.829388
G1 F600.000 X105.450 Y112.800 E30.955530
G1 F600.000 X104.550 Y115.700 E31.319902
G1 F600.000 X104.350 Y118.350 E31.638807
G1 F600.000 X104.550 Y120.500 E31.897921
G1 F600.000 X105.000 Y121.850 E32.068684
G1 F600.000 X105.850 Y123.350 E32.275574
G1 F600.000 X106.700 Y124.300 E32.428543
G1 F600.000 X107.950 Y125.200 E32.613377
G1 F600.000 X109.800 Y125.950 E32.852924
G1 F600.000 X111.200 Y126.100 E33.021889
G1 F600.000 X113.250 Y125.700 E33.272526
G1 F600.000 X114.550 Y125.150 E33.441914
G1 F600.000 X116.550 Y125.400 E33.683781
G1 F600.000 X117.750 Y125.300 E33.828278
G1 F600.000 X119.350 Y124.650 E34.035515
G1 F600.000 X120.850 Y123.300 E34.277679
G1 F600.000 X121.800 Y122.250 E34.447601
G1 F600.000 X122.650 Y120.900 E34.639034
G1 F600.000 X122.900 Y120.700 E34.677456
G1 F600.000 X124.000 Y120.450 E34.812820
G1 F600.000 X124.600 Y120.450 E34.884819
G1 F600.000 X125.850 Y119.950 E35.046375
G1 F600.000 X126.350 Y119.600 E35.119614
G1 F600.000 X127.300 Y118.400 E35.303276
G1 F600.000 X127.650 Y116.750 E35.505684
G1 F600.000 X127.550 Y115.150 E35.698059
G1 F600.000 X127.400 Y114.600 E35.766468
G1 F600.000 X126.950 Y113.700 E35.887218
G1 F600.000 X125.950 Y112.600 E36.065613
G1 F600.000 X123.650 Y110.950 E36.405289
G1 F600.000 X122.900 Y110.150 E36.536880
G1 F600.000 X122.000 Y108.700 E36.741673
G1 F600.000 X120.838 Y105.842 E37.111897
G10
G0 F4800.000 X120.200 Y106.000
G0 F4800.000 X119.500 Y106.300
G0 F4800.000 X119.250 Y106.400
G0 F4800.000 X119.100 Y106.450
G11
G1 F600.000 X118.450 Y105.300 E37.270416
G1 F600.000 X117.900 Y104.850 E37.355690
G1 F600.000 X116.700 Y104.350 E37.511688
G1 F600.000 X115.700 Y104.650 E37.636974
G1 F600.000 X114.150 Y105.750 E37.865051
G1 F600.000 X113.250 Y106.700 E38.022083
G1 F600.000 X112.350 Y107.050 E38.137962
G1 F600.000 X109.800 Y107.300 E38.445431
G1 F600.000 X108.850 Y107.950 E38.583561
G1 F600.000 X108.400 Y108.600 E38.678429
G1 F600.000 X108.150 Y109.600 E38.802124
G1 F600.000 X108.000 Y109.700 E38.823757
G1 F600.000 X108.000 Y110.400 E38.907757
G1 F600.000 X107.850 Y110.800 E38.959023
G1 F600.000 X107.850 Y111.300 E39.019024
G1 F600.000 X107.700 Y111.500 E39.049023
G1 F600.000 X107.700 Y112.050 E39.115025
G1 F600.000 X106.750 Y114.350 E39.413639
G1 F600.000 X106.400 Y116.050 E39.621918
G1 F600.000 X106.300 Y116.150 E39.638889
G1 F600.000 X106.300 Y116.750 E39.710888
G1 F600.000 X106.150 Y117.100 E39.756584
G1 F600.000 X106.150 Y118.250 E39.894585
G1 F600.000 X106.250 Y118.500 E39.926895
G1 F600.000 X106.350 Y120.400 E40.155212
G1 F600.000 X106.600 Y121.200 E40.255791
G1 F600.000 X107.200 Y122.150 E40.390625
G1 F600.000 X108.000 Y123.000 E40.530697
G1 F600.000 X109.050 Y123.750 E40.685539
G1 F600.000 X110.300 Y124.250 E40.847092
G1 F600.000 X111.250 Y124.300 E40.961250
G1 F600.000 X112.850 Y123.950 E41.157787
G1 F600.000 X114.200 Y123.350 E41.335068
G1 F600.000 X115.100 Y123.350 E41.443066
G1 F600.000 X115.350 Y123.500 E41.478054
G1 F600.000 X116.000 Y123.450 E41.556282
G1 F600.000 X116.850 Y123.600 E41.659855
G1 F600.000 X117.600 Y123.500 E41.750652
G1 F600.000 X118.200 Y123.250 E41.828651
G1 F600.000 X120.450 Y121.000 E42.210491
G1 F600.000 X121.250 Y119.750 E42.388580
G1 F600.000 X122.350 Y118.900 E42.555397
G1 F600.000 X122.900 Y118.900 E42.621399
G1 F600.000 X123.750 Y118.600 E42.729565
G1 F600.000 X124.350 Y118.650 E42.801811
G1 F600.000 X125.050 Y118.300 E42.895729
G1 F600.000 X125.700 Y117.600 E43.010357
G1 F600.000 X125.850 Y116.450 E43.149525
G1 F600.000 X125.750 Y115.350 E43.282070
G1 F600.000 X125.300 Y114.450 E43.402817
G1 F600.000 X124.650 Y113.750 E43.517445
G1 F600.000 X124.550 Y113.800 E43.530861
G1 F600.000 X122.550 Y112.400 E43.823814
G1 F600.000 X121.350 Y111.150 E44.031750
G1 F600.000 X120.400 Y109.600 E44.249905
G1 F600.000 X119.141 Y106.548 E44.646053
G0 F4800.000 X117.500 Y105.500
G0 F4800.000 X118.150 Y104.500
G1 F600.000 X116.900 Y103.950 E44.809933
G1 F600.000 X115.650 Y104.200 E44.962902
G1 F600.000 X113.850 Y105.500 E45.229343
G1 F600.000 X113.000 Y106.400 E45.377895
G1 F600.000 X112.300 Y106.650 E45.467091
G1 F600.000 X109.800 Y106.900 E45.768585
G1 F600.000 X108.550 Y107.650 E45.943516
G1 F600.000 X108.000 Y108.500 E46.065006
G1 F600.000 X107.800 Y109.400 E46.175644
G1 F600.000 X107.600 Y109.700 E46.218906
G1 F600.000 X107.600 Y110.350 E46.296909
G1 F600.000 X107.450 Y110.700 E46.342606
G1 F600.000 X107.450 Y111.150 E46.396606
G1 F600.000 X107.300 Y111.400 E46.431591
G1 F600.000 X107.300 Y112.000 E46.503590
G1 F600.000 X106.900 Y113.150 E46.649700
G1 F600.000 X106.600 Y113.600 E46.714600
G1 F600.000 X106.600 Y113.900 E46.750599
G1 F600.000 X106.350 Y114.250 E46.802212
G1 F600.000 X106.050 Y115.850 E46.997559
G1 F600.000 X105.900 Y116.050 E47.027557
G1 F600.000 X105.900 Y116.700 E47.105556
G1 F600.000 X105.750 Y117.000 E47.145809
G1 F600.000 X105.750 Y118.350 E47.307808
G1 F600.000 X105.850 Y118.550 E47.334641
G1 F600.000 X105.950 Y120.400 E47.556965
G1 F600.000 X106.300 Y121.400 E47.684101
G1 F600.000 X106.900 Y122.400 E47.824047
G1 F600.000 X107.750 Y123.350 E47.977016
G1 F600.000 X108.750 Y124.050 E48.123493
G1 F600.000 X110.300 Y124.650 E48.322945
G1 F600.000 X111.250 Y124.700 E48.437103
G1 F600.000 X112.950 Y124.350 E48.645378
G1 F600.000 X114.250 Y123.750 E48.817192
G1 F600.000 X115.000 Y123.750 E48.907192
G1 F600.000 X115.250 Y123.900 E48.942177
G1 F600.000 X116.000 Y123.850 E49.032375
G1 F600.000 X116.800 Y124.000 E49.130051
G1 F600.000 X117.600 Y123.900 E49.226795
G1 F600.000 X118.400 Y123.600 E49.329323
G1 F600.000 X119.900 Y122.250 E49.571487
G1 F600.000 X120.750 Y121.300 E49.724457
G1 F600.000 X121.550 Y120.000 E49.907631
G1 F600.000 X122.400 Y119.350 E50.036037
G1 F600.000 X122.900 Y119.300 E50.096336
G1 F600.000 X123.800 Y119.000 E50.210178
G1 F600.000 X124.400 Y119.050 E50.282429
G1 F600.000 X125.300 Y118.650 E50.400612
G1 F600.000 X126.050 Y117.800 E50.536640
G1 F600.000 X126.250 Y116.550 E50.688549
G1 F600.000 X126.150 Y115.250 E50.845013
G1 F600.000 X125.700 Y114.350 E50.965759
G1 F600.000 X124.950 Y113.550 E51.097351
G1 F600.000 X122.850 Y112.100 E51.403587
G1 F600.000 X121.700 Y110.900 E51.603035
G1 F600.000 X120.800 Y109.450 E51.807831
G1 F600.000 X119.500 Y106.300 E52.216759
G1 F600.000 X118.700 Y105.000 E52.399929
G1 F600.000 X118.219 Y104.563 E52.477974
G0 F4800.000 X117.500 Y105.500
G0 F4800.000 X108.750 Y108.300
G1 F600.000 X109.200 Y107.900 E52.550228
G0 F4800.000 X110.200 Y107.450
G1 F600.000 X108.400 Y109.250 E52.855698
G0 F4800.000 X108.200 Y110.000
G1 F600.000 X110.800 Y107.400 E53.296928
G0 F4800.000 X111.450 Y107.350
G1 F600.000 X108.050 Y110.700 E53.869701
G0 F4800.000 X107.900 Y111.450
G1 F600.000 X112.050 Y107.300 E54.573982
G0 F4800.000 X112.850 Y107.050
G1 F600.000 X107.900 Y112.000 E55.414021
G0 F4800.000 X117.550 Y123.300
G1 F600.000 X120.850 Y119.950 E55.978306
G0 F4800.000 X125.600 Y116.950
G1 F600.000 X124.100 Y118.450 E56.232868
G0 F4800.000 X123.450 Y118.500
G1 F600.000 X125.650 Y116.300 E56.606220
G0 F4800.000 X125.600 Y115.800
G1 F600.000 X122.700 Y118.700 E57.098370
G0 F4800.000 X121.800 Y119.000
G1 F600.000 X125.500 Y115.350 E57.722050
G0 F4800.000 X125.300 Y114.950
G1 F600.000 X116.850 Y123.400 E59.156063
G0 F4800.000 X116.400 Y123.300
G1 F600.000 X125.100 Y114.600 E60.632504
G0 F4800.000 X124.850 Y114.300
G1 F600.000 X115.850 Y123.250 E62.155617
G0 F4800.000 X115.300 Y123.250
G1 F600.000 X124.500 Y114.050 E63.716904
G0 F4800.000 X124.200 Y113.800
G1 F600.000 X114.850 Y123.150 E65.303650
G0 F4800.000 X114.300 Y123.150
G1 F600.000 X123.850 Y113.600 E66.924332
G0 F4800.000 X123.500 Y113.350
G1 F600.000 X113.450 Y123.450 E68.634125
G0 F4800.000 X112.500 Y123.800
G1 F600.000 X123.200 Y113.100 E70.449974
G0 F4800.000 X122.850 Y112.900
G1 F600.000 X111.800 Y123.950 E72.325218
G0 F4800.000 X111.100 Y124.100
G1 F600.000 X122.550 Y112.650 E74.268349
G0 F4800.000 X122.250 Y112.350
G1 F600.000 X110.550 Y124.050 E76.253906
G0 F4800.000 X110.100 Y123.950
G1 F600.000 X122.000 Y112.050 E78.273399
G0 F4800.000 X121.700 Y111.750
G1 F600.000 X109.700 Y123.800 E80.314117
G0 F4800.000 X109.300 Y123.600
G1 F600.000 X121.400 Y111.500 E82.367554
G0 F4800.000 X121.150 Y111.200
G1 F600.000 X108.950 Y123.400 E84.437958
